assets/img/braze_icons/moon-eclipse.svg

<svg fill="none" height="24" viewBox="0 0 24 24" width="24" xmlns="http://www.w3.org/2000/svg"><g fill="#801ed7"><path d="m12 1c-6.07513 0-11 4.92487-11 11 0 6.0751 4.92487 11 11 11 1.7264 0 3.3625-.3984 4.8189-1.1092.4254-.2076.647-.6851.5309-1.144s-.5381-.7735-1.011-.7538c-.1123.0046-.2253.007-.3388.007-4.4183 0-8-3.5817-8-8 0-4.41828 3.5817-8 8-8 .1136 0 .2265.00236.3388.00703.4729.01966.8949-.29498 1.011-.75388.1161-.45889-.1055-.93633-.5309-1.14394-1.4564-.71081-3.0925-1.10921-4.8189-1.10921z"/><path d="m19.4008 5.20101c.4415-.33187 1.0684-.24304 1.4002.19841 2.9326 3.90083 2.9319 9.30368-.0019 13.20388-.3319.4414-.9589.53-1.4002.198-.4414-.332-.53-.9589-.198-1.4003 2.3982-3.1883 2.3988-7.61093.0015-10.79977-.3319-.44145-.243-1.06835.1984-1.40022z"/></g></svg>

<svg width="24" height="24" viewBox="0 0 24 24" fill="none" xmlns="http://www.w3.org/2000/svg">
<path d="M12 1C5.92487 1 1 5.92487 1 12C1 18.0751 5.92487 23 12 23C13.7264 23 15.3625 22.6016 16.8189 21.8908C17.2443 21.6832 17.4659 21.2057 17.3498 20.7468C17.2337 20.2879 16.8117 19.9733 16.3388 19.993C16.2265 19.9976 16.1135 20 16 20C11.5817 20 8 16.4183 8 12C8 7.58172 11.5817 4 16 4C16.1136 4 16.2265 4.00236 16.3388 4.00703C16.8117 4.02669 17.2337 3.71205 17.3498 3.25315C17.4659 2.79426 17.2443 2.31682 16.8189 2.10921C15.3625 1.3984 13.7264 1 12 1Z" fill="#801ED7"/>
<path d="M19.4008 5.20101C19.8423 4.86914 20.4692 4.95797 20.801 5.39942C23.7336 9.30025 23.7329 14.7031 20.7991 18.6033C20.4672 19.0447 19.8402 19.1333 19.3989 18.8013C18.9575 18.4693 18.8689 17.8424 19.2009 17.401C21.5991 14.2127 21.5997 9.79007 19.2024 6.60123C18.8705 6.15978 18.9594 5.53288 19.4008 5.20101Z" fill="#801ED7"/>
</svg>
